X: 1
T: The Braes of Glendochert
M: C
L: 1/8
R: Reel
S: McGlashan \`i Strathspey Reels (1786)
Z: AK/Fiddlers Companion
K: Dmix
A|FDAF BGAF|EcGc ECCA|DFAF BGAG|FdAd FDD:|
g|f/g/a da fdad|e/f/g c>g ecgc|f/g/a da fdad|B/^c/d A>d Fddg|
f/g/a da fdad|e/f/g cg ecge|afge fde^c|d/^c/B/c/ dA FDD||
